X:1
T:Test Drive - How to Train Your Dragon
T:Test Drive - How to Train Your Dragon
T:Just For Fun Project
T:John Powell 
T:Dream Works Studios (2010)
T:Dream Works Studios (2010)
C:John Powell
Z:Dream Works Studios (2010)
%%score 1 2
L:1/8
Q:1/4=111
M:4/4
K:D
V:1 treble-8 nm="Classical Guitar" snm="Guit."
V:2 treble-8 nm="Classical Guitar" snm="Guit."
V:1
 z4 z2 z"^~00:05" A |"^D" [Dd]A[Dd]e"^A" [Dc]A[Dc]d |"^Bm" [DB]A[DA]G"^G" [DG]F[DE]D | %3
"^D" [Dd]A[Dd]e"^A" [Dc]A[Dc]d |"^Bm" [DB]A[DA]G"^G" [DG]F[DE]D |"^D" [Dd]A[Dd]e"^A" [Dc]A[Dc]d | %6
"^Bm" [DB]A[DA]G"^G" [DG]F[DE]D |"^D" [Dd]A[Dd]e"^A" [Dc]A[Dc]d | %8
"^Bm" [DB]A[DA]G"^G" [DG]F[DE]"^~00:22"D |"^Bm" f4"^G" g3 f |"^A" ef g2"^D" f4- | %11
"^Bm" f2 f2"^G" g3 f |"^A" ef g2"^D" f4- |"^Bm" f2 B2 B2 c2 |"^F#m" c2 BA F4- |"^Bm" F2 B2 B2 c2 | %16
"^F#m" c2 BA F4 |"^~00:40""^D" [Dd]A[Dd]A [Dd]A[Dd]A |"^A" [De]Ad[Af]"^Bm" [Af]AdA | %19
"^D" f2 d2 f2 a2 |"^A" [De]Ad[Af]"^Bm" [Af]AdA |"^G" ffba"^D" f2 ee |"^A" e3 f"^Bm" B2 Bc | %23
"^G" d3 e dcBA |"^~00:55""^E\n" [E,B]6 A2 | B2 c2 d2 e2 |"^D\n" a2 d2 c3 A | B2- BB D4 | %28
"^Bm" F3 F"^G" G3 F |"^A" EF G2"^D" F4- |"^Bm" F2 F2"^G" G3 F |"^A" EF G2"^D" F4- | %32
"^Bm" F2 B2 B2 c2 |"^F#m" c2 BA F4- |"^Bm" F2 B2 B2 c2 |"^F#m" c2 BA"^~01:20" F4 |"^A" a8- | a8- | %38
 a8- | a8- | a8 |[Q:1/4=112]"^A" a8 |"^G" g8 |"^F" =f8 |"^E" e8 |"^G" g8 |"^A" a8- | a8 |"^G" g8 | %49
"^A" a8- | a4"^B" b4 |[K:E]"^~01:53"[Q:1/4=115]"^E" [Ee]B[Ee]f"^B" [Ed]B[Ed]e | %52
"^C#m" [Ec]B[EB]A"^A" [EA]G[EF]E |"^E" [Ee]B[Ee]f"^B" [Ed]B[Ed]e | %54
"^C#m" [Ec]B[EB]A"^A" [EA]G[EF]E |"^E" g2 e2 g2 b2 |"^B" [Ef]Be[Bg]"^C#m" [Bg]BeB | %57
"^A" ggc'b"^E" g2 ff |"^B" f3 g"^C#m" c2 cd |"^A" e3 f edcB |"^F#\n" [F,c]6 B2 |"^A" e3 f edcB | %62
"^~02:16""^F#" c6 cd |"^A" e3 f edcB |"^B" Bcde fg^a"^E"b | B[Ee]f"^B"[Ed]"^B" B[Ed]e"^C#m"[Ec] | %66
 B[EB]A"^A"[EA] G[EF]EA | GFE"^E" E4 z | z8 |] %69
V:2
 z8 | !arpeggio![dfa]4 !arpeggio![Ace]4 | !arpeggio![dfb]4 !arpeggio![gbd']4 | %3
 !arpeggio![dfa]4 !arpeggio![Ace]4 | !arpeggio![dfb]4 !arpeggio![gbd']4 | %5
 !arpeggio![dfa]4 !arpeggio![Ace]4 | !arpeggio![dfb]4 !arpeggio![gbd']4 | %7
 !arpeggio![dfa]4 !arpeggio![Ace]4 | !arpeggio![dfb]4 !arpeggio![gbd']4 | %9
 !arpeggio![dfb]4 !arpeggio![gbd']4 | !arpeggio![Ace]4 !arpeggio![dfa]4 | %11
 !arpeggio![dfb]4 !arpeggio![gbd']4 | !arpeggio![Ace]4 !arpeggio![dfa]4 | !arpeggio![dfb]8 | %14
 !arpeggio![Fcf]8 | !arpeggio![dfb]8 | !arpeggio![Fcf]8 | !arpeggio![dfa]4 !arpeggio![dfa]4 | %18
 !arpeggio![Ace]4 !arpeggio![dfb]4 | !arpeggio![dfa]8 | !arpeggio![Ace]4 !arpeggio![dfb]4 | %21
 !arpeggio![gbd']4 !arpeggio![dfa]4 | !arpeggio![Ace]4 !arpeggio![dfb]4 | !arpeggio![gbd']8 | %24
 [EBe]8- | [EBe]8 | !arpeggio![dfa]8 | z8 | !arpeggio![dfb]4 !arpeggio![gbd']4 | %29
 !arpeggio![Ace]4 !arpeggio![dfa]4 | !arpeggio![dfb]4 !arpeggio![gbd']4 | %31
 !arpeggio![Ace]4 !arpeggio![dfa]4 | !arpeggio![dfb]8 | !arpeggio![Fcf]8 | !arpeggio![dfb]8 | %35
 !arpeggio![Fcf]8 | z8 | z8 | z8 | z8 | z8 | z8 | z8 | z8 | z8 | z8 | z8 | z8 | z8 | z8 | z8 | %51
[K:E] !arpeggio![egb]4 !arpeggio![Bdf]4 | !arpeggio![egc']4 !arpeggio![ac'e']4 | %53
 !arpeggio![egb]4 !arpeggio![Bdf]4 | !arpeggio![egc']4 !arpeggio![ac'e']4 | !arpeggio![egb]8 | %56
 !arpeggio![Bdf]4 !arpeggio![egc']4 | !arpeggio![ac'e']4 !arpeggio![egb]4 | %58
 !arpeggio![Bdf]4 !arpeggio![egc']4 | !arpeggio![ac'e']8 | [Fcf]8 | !arpeggio![ac'e']8 | [Fcf]8 | %63
 !arpeggio![ac'e']8 | !arpeggio![Bdf]7 !arpeggio![egb]- | %65
 [egb]3 !arpeggio![Bdf]4 !arpeggio![egc']- | [egc']3 !arpeggio![ac'e']4 z | %67
 z2 z !arpeggio![EGB]4 z | z8 |] %69

